X:1
T:Title
%%score ( 1 2 ) { 3 | 4 }
L:1/8
Q:1/4=107
M:4/4
K:F
V:1 treble nm="Grand Piano, Soprano"
V:2 treble 
V:3 bass nm="Choir Pad, What a Mighty God"
V:4 bass 
V:1
 C2 [CF]2 [CF]2 [EG]2 | [EG]2 [FA]2 [Fc]2 [Fc]2- | [Fc]2 [Fc]>[Fd] [Fc]>[FA] F2 | [FA]2 [EG]6 | %4
w: By~Barney~Elliott~Warren * * *||||
 C2 [CF]2 [CF]2 [EG]2 | [EG]2 [FA]2 [Fc]2 [Fc]2- | [Fc]2 [Fc]>[Fd] [Fc]>[GB] [FA]2 | [EG]2 [CF]6 | %8
w: ||||
 z2 [CF]>[CF] [CF]>[CF] [EG]2 | z2 A6 | z2 [FA]>[FA] [FA]>[FA] [F=B]2 | z2 c6- | c2 z2 z4 | z8 | %14
w: ||||||
 z8 | [EG]2 [CF]6- | [CF]2 z2 z4 |] %17
w: |||
V:2
 x8 | x8 | x8 | x8 | x8 | x8 | x8 | x8 | x8 | [EG]2 F2 D2 C2 | x8 | [F=B]2 E2 F2 G2- | %12
 G2 [Ac]>[Ac] [Af]>[Fd] [Fc]2- | [Fc]2 [CF]>[CF] [FA]>[EG] F2- | F2 [Ac]>[Bd] [Ac]>[GB] [FA]2 | %15
 x8 | x8 |] %17
V:3
 A,2 A,2 A,2 C2 | C2 C2 A,2 A,2- | A,2 A,>B, A,>[K:treble]C C2 | C2 C6 | B,2 A,2 A,2 C2 | %5
 C2 C2[K:bass] A,2 A,2- | A,2 A,>B, A,>D C2 | B,2 A,6 | z2 A,>A, A,>A, C2 | C2 C6 | z2 C>C D>D D2 | %11
 D2 C2 D2 E2- | E2 F>F C>[K:bass]B, A,2- | A,2 A,>A, C>B, A,2- | A,2[K:treble] F>F F>D C2 | %15
 B,2 A,6- | A,2 z2 z4 |] %17
V:4
 F,2 F,2 F,2 C,2 | C,2 F,2 F,2 F,2- | F,2 F,>F, F,>F, A,2 | F,2 C,6 | E,2 F,2 F,2 C,2 | %5
 C,2 F,2 F,2 F,2- | F,2 F,>F, F,>B,, C,2 | C,2 [F,,F,]6 | z2 F,>F, F,>F, C,2 | C,2 F,6 | %10
 z2 F,>F, F,>F, G,2 | G,2 C,6- | C,2 F,>F, F,>F, F,2- | F,2 F,>F, C,>C, F,2- | %14
 F,2 F,>F, F,>B,, C,2 | C,2 [F,,F,]6- | [F,,F,]2 z2 z4 |] %17

